X:185
T:Muffin Man that Kisses the Lasses O,The. JGi.185
T:La Belle Catherine,aka. JGi.185
T:Come Dance and Sing,aka. JGi.185
M:2/4
L:1/8
Q:1/4=120
S:Joshua Gibbons MS,1823,Tealby,Lincs.
N:Variant of nursery rhyme “Do you know the muffin man?”
R:Country Dance
O:Tealby,Lincolnshire
Z:VMP/R.Greig, 2009
K:D
d2ee|fd dc|Be ed|cAA2|d2ee|(fd) (dc)|(Be)dc|d2z:|
|:FAA2|FAA2|FAdf|eAA2|FAA2|FAA2|FAdf|”DC”a4:|

